packages/icons/assets/RecordCamOff.svg

<svg xmlns="http://www.w3.org/2000/svg" viewBox="0 0 16 16"><path fill="#414141" d="M10.00044 11.99945v-2.316l4 1.778v-6.923l-4 1.777v-2.316h-8v8h8m5 1l-4-1.777v1.777h-10v-10h10v1.777l4-1.777z"/><path fill="#414141" d="M.6460879746 14.6468037432L14.6468022421.6460894757l.7071067812.7071067811L1.3531947558 15.3539105243z"/></svg>

<svg xmlns="http://www.w3.org/2000/svg" viewBox="0 0 16 16"><path fill="#414141" d="M10 12V9.684l4 1.778V4.539l-4 1.777V4H2v8h8m5 1l-4-1.777V13H1V3h10v1.777L15 3z"/><path fill="#414141" d="M.6460879746 14.6468037432L14.6468022421.6460894757l.7071067812.7071067811L1.3531947558 15.3539105243z"/></svg>
